X:138
T: Et sass e kli waelt Vijeltchen
N: D0220
O: Europa, Mitteleuropa, Deutschland, Siebenbuergen
N: Variante zum folgenden D0220A, Inzipit = Variante zum Lied
R: Liebes - Ballade
M: 3/4
L: 1/16
K: G
D2 | G3GG6A2 | _B3AG4z2
G2 | d2d2D2D2 | G4G4z2
d2 | d3c_B6d2 | c3_BA4z2
A2 | G3G_B6F2 | G4G4z2

